build/svg/cmd/lc_dataarearefresh.svg

<?xml version="1.0" encoding="UTF-8" standalone="no"?>
<svg
   xmlns:dc="http://purl.org/dc/elements/1.1/"
   xmlns:cc="http://creativecommons.org/ns#"
   xmlns:rdf="http://www.w3.org/1999/02/22-rdf-syntax-ns#"
   xmlns:svg="http://www.w3.org/2000/svg"
   xmlns="http://www.w3.org/2000/svg"
   xmlns:sodipodi="http://sodipodi.sourceforge.net/DTD/sodipodi-0.dtd"
   xmlns:inkscape="http://www.inkscape.org/namespaces/inkscape"
   viewBox="0 0 24 24"
   version="1.1"
   id="svg6"
   sodipodi:docname="lc_dataarearefresh.svg"
   inkscape:export-filename="/home/jupiter007/Libreoffice yaru theme fullcolor/build/cmd/lc_dataarearefresh.png"
   inkscape:export-xdpi="96"
   inkscape:export-ydpi="96"
   inkscape:version="0.92.5 (2060ec1f9f, 2020-04-08)">
  <metadata
     id="metadata12">
    <rdf:RDF>
      <cc:Work
         rdf:about="">
        <dc:format>image/svg+xml</dc:format>
        <dc:type
           rdf:resource="http://purl.org/dc/dcmitype/StillImage" />
      </cc:Work>
    </rdf:RDF>
  </metadata>
  <defs
     id="defs10" />
  <sodipodi:namedview
     pagecolor="#ffffff"
     bordercolor="#666666"
     borderopacity="1"
     objecttolerance="10"
     gridtolerance="10"
     guidetolerance="10"
     inkscape:pageopacity="0"
     inkscape:pageshadow="2"
     inkscape:window-width="1920"
     inkscape:window-height="1011"
     id="namedview8"
     showgrid="true"
     inkscape:zoom="27.812867"
     inkscape:cx="14.691831"
     inkscape:cy="8.5445337"
     inkscape:window-x="0"
     inkscape:window-y="32"
     inkscape:window-maximized="1"
     inkscape:current-layer="svg6">
    <inkscape:grid
       type="xygrid"
       id="grid840" />
  </sodipodi:namedview>
  <circle
     style="opacity:1;vector-effect:none;fill:#762572;fill-opacity:1;stroke:none;stroke-width:3.49999976;stroke-linecap:butt;stroke-linejoin:round;stroke-miterlimit:4;stroke-dasharray:none;stroke-dashoffset:0;stroke-opacity:1"
     id="path2644"
     cy="16.5"
     cx="16.5"
     r="3.5" />
  <path
     d="m 16.5,14 c -0.433427,0 -0.832855,0.1201 -1.1875,0.3125 l 0.75,0.75 C 16.199594,15.0215 16.349209,15 16.5,15 c 0.831,0 1.5,0.669 1.5,1.5 0,0.1508 -0.02148,0.3004 -0.0625,0.4375 l 0.75,0.75 C 18.879995,17.3328 19,16.9334 19,16.5 19,15.115 17.885,14 16.5,14 Z m -2.1875,1.3125 C 14.120005,15.6672 14,16.0666 14,16.5 c 0,1.385 1.115,2.5 2.5,2.5 0.433427,0 0.832855,-0.1201 1.1875,-0.3125 l -0.75,-0.75 C 16.800406,17.9785 16.650791,18 16.5,18 15.669,18 15,17.331 15,16.5 c 0,-0.1508 0.02147,-0.3004 0.0625,-0.4375 z"
     id="path4-9"
     inkscape:connector-curvature="0"
     style="fill:#ffffff;fill-opacity:1"
     sodipodi:nodetypes="sccssccsscssccsscc" />
  <rect
     style="opacity:1;fill:#ffffff;fill-opacity:1;fill-rule:evenodd;stroke:none;stroke-width:2;stroke-linecap:butt;stroke-linejoin:round;stroke-miterlimit:4;stroke-dasharray:none;stroke-opacity:1"
     id="rect850"
     width="3"
     height="11"
     x="4.0000005"
     y="8.000001" />
  <rect
     style="opacity:1;fill:#a6d74f;fill-opacity:1;fill-rule:evenodd;stroke:none;stroke-width:2;stroke-linecap:butt;stroke-linejoin:round;stroke-miterlimit:4;stroke-dasharray:none;stroke-opacity:1"
     id="rect852"
     width="15"
     height="3"
     x="4.0000005"
     y="4" />
  <path
     style="opacity:1;fill:#6d6d6d;fill-opacity:1;fill-rule:evenodd;stroke:none;stroke-width:2;stroke-linecap:butt;stroke-linejoin:round;stroke-miterlimit:4;stroke-dasharray:none;stroke-opacity:1"
     d="m 3,5 v 3 10 c 0,2 1,2 3,2 H 8 V 8 H 20 V 5 C 20,3 19,3 17,3 H 8 6 C 4,3 3,3 3,5 Z M 4,5 C 4,4 5,4 6,4 H 7 V 7 H 4 Z M 8,4 h 3 V 7 H 8 Z m 4,0 h 3 v 3 h -3 z m 4,0 h 1 c 1,0 2,0 2,1 V 7 H 16 Z M 4,8 h 3 v 3 H 4 Z m 0,4 h 3 v 3 H 4 Z m 0,4 h 3 v 3 H 6 C 5,19 4,19 4,18 Z"
     id="rect824"
     inkscape:connector-curvature="0"
     sodipodi:nodetypes="cccccccccccccccccccccccccccccccccccccccccccccccccc" />
</svg>

<svg xmlns="http://www.w3.org/2000/svg" viewBox="0 0 24 24"><circle cy="16.5" cx="16.5" r="3.5" fill="#762572"/><path d="M16.5 14c-.433 0-.833.12-1.188.313l.75.75c.138-.042.287-.063.438-.063.831 0 1.5.669 1.5 1.5 0 .15-.021.3-.063.438l.75.75c.193-.355.313-.755.313-1.188 0-1.385-1.115-2.5-2.5-2.5zm-2.188 1.313A2.476 2.476 0 0014 16.5c0 1.385 1.115 2.5 2.5 2.5.433 0 .833-.12 1.188-.313l-.75-.75A1.539 1.539 0 0116.5 18c-.831 0-1.5-.669-1.5-1.5 0-.15.021-.3.063-.438z" fill="#fff"/><path fill="#fff" fill-rule="evenodd" d="M4 8h3v11H4z"/><path fill="#a6d74f" fill-rule="evenodd" d="M4 4h15v3H4z"/><path d="M3 5v13c0 2 1 2 3 2h2V8h12V5c0-2-1-2-3-2H6C4 3 3 3 3 5zm1 0c0-1 1-1 2-1h1v3H4zm4-1h3v3H8zm4 0h3v3h-3zm4 0h1c1 0 2 0 2 1v2h-3zM4 8h3v3H4zm0 4h3v3H4zm0 4h3v3H6c-1 0-2 0-2-1z" fill="#6d6d6d" fill-rule="evenodd"/></svg>
